X:897
T:Mr and Mrs Menzies of Auchterarder
C:Jim Cleland
S:Charlie Kennedy
Z:Nigel Gatherer
M:2/4
L:1/8
K:A
E    | A>G AB | cA AB/c/ | d>c df  | e3 
c    | d>c df | ec AB/c/ | d>c BA  | g3
E    | A>G AB | cA AB/c/ | d>c df  | e3 
f/g/ | a>g fe | cA AB/c/ | d>e dG  | A3 :|
A/G/ | F>G AF | EC CE    | D>E DB, | C3
E    | F>G AF | EA Ac    | B>A GF  | E3
E    | A>G AB | cA AB/c/ | d>c df  | e3 
f/g/ | a>g fe | cA AB/c/ | d>e dG  | A3 :|
<end>
<start>
